!!!OTL: De Schwarzen (271), S. 460
!!!id: T0460
**kern
*clefG2
*k[f#]
*G:
{8g
=1
8g
4g
8g
=2yy
8b
=3
4a
4a
=4
8g
8f#
8e
8f#
=5
4g
4d}
=6
{4g
8g
8b
=7
4a
4a
=8
8g
8f#
8e
8f#
=9
2g}
=10
{4b
8b
8dd
=11
2cc
=12
4a
8a
8cc
=13
2b}
=14
{4g
8g
8b
=15
4a
4a
=16
8g
8f#
8e
8f#
=17
4g
4d}
=18
{4g
8g
8b
=19
4a
4a
=20
8g
8ff#
8e
8f#
=21
4g
4d}
=22
{4g
8g
8b
=23
4a
4a
=24
8g
8f#
8e
8f#
=25
2g}
=26
{4b
8b
8dd
=27
2cc
=28
4a
8a
8cc
=29
2b}
=30
{4g
8g
8b
=31
4a
4a
=32
8g
8f#
8e
8f#
=33
2g}
==
*-
!!!minrhy: 8
!!!meters: 2/4 ]  ZZ[8
!!!cut: De Schwarzen (271), S. 460
!!!reg: Luxemburg
!!!trd: Singendes Volk, Esch-Alzette, 1937 posth.
!!!rhy1:   X_XX  X_X_  XXXX  X_X_
!!!rhy2: X_XX  X_X_  XXXX  X__
!!!key: T0460  08  G 2/4 ]  ZZ[8
!!!mod: HEPTATONIK IONISCH]  AMBITUS[10
!!!kad: -513-5-5131
!!!akz: 1211_1211_3423_1211_1211_1211_3423_1211_
!!!fot: 'a__aw_as"a__av_aw_as"aw_
!!!for: 'a__aw_b__a__a__aw_b__aw_
!!!fok: 'Md_~__^__Md_Md_~__^__~__
!! PHRAS[VOLLTAKTIG]
!!!fkt: ???, Liebeslied?
!!!bem: Blascheid, hhh Nikolaus Perl, 1902
!! THILL; Mathias
!! PR[44] 2K[5] 2G[9] 3K[2] 3G[0] 4A[6] 4Ü[0] 5A[0] 6K[0] 6G[0]
!! 7K[1] 7G[0] 8A[0] MEHR[0] SI[23] ABS[88] SR[14] SP[9]
!! ST[38] 2k[9] 2g[19] 3k[3] 3g[0] 4d[1] 4ü[0] 5d[0] 6k[0] 6g[0]
!! 7k[0] 7g[0] 8d[0] mehr[0] si[33] dm[-10] sr[28] sp[5]
!! 1F[45] 2F[55] 3F[0] 4F[0] LF[0] 2P[0] 3P[0] 4P[0] TRI[0] DF[2] AB[98]
!! TF[0] U3K[0] U3[1] U4[1] U4Ü[0] U5[13] U6K[0] U6[15] U7K[0] U7[8]
!! N1[17] N2K[0] N2[16] N3K[0] N3[13] N4[13] N4Ü[0] N5[2] N6K[0] N6[0]
!!!n7k: 0] N7[0] O1[0] O2K[0] O2[0] O3K[0] O3[0] HÖ[0
